X:1
T:Tag!
M:C|
L:1/16
K:D
D3F1d1A3 B3A1G3F1 | G1B3e3d1 c3A1E1C3 | D3F1d3A1 B3A1G1F3 | (3B2c2d2 (3c2d2e2 f1d3d3D1 |
  F1d3A3B1 A1G3F1G3 | B3e1d1c3 A3E1C1D3 | F1d3A1B3 A3G1F3G1 | B1g3 fedc d4 d2 fg||
a3d1f1d3 b3g1e3g1 | a3f1e3d1 c1e3e3f1 | a3d1f1d3 b3g1e1g3 | (3f2g2a2 (3g2f2e2 f1d3d3a1 |
  d3f1d1b3 g1e3g1a3 | f3e1d3c1 e1e3f1a3 | d1f3d3b1 g3e1g3a1 | b3g fedc d8 |]

